src/assets/connectors/icn-ledger.svg

<svg width="30" height="30" viewBox="0 0 30 30" fill="none" xmlns="http://www.w3.org/2000/svg">
<path d="M25.0862 0.20166H11.4743V18.4699H29.7426V4.95469C29.75 2.3885 27.6524 0.20166 25.0862 0.20166ZM7.294 0.20166H5.01046C2.44428 0.20166 0.25 2.2918 0.25 4.96212V7.24566H7.294V0.20166ZM0.25 11.5226H7.294V18.5666H0.25V11.5226ZM22.706 29.7909H24.9895C27.5557 29.7909 29.75 27.7008 29.75 25.0305V22.7544H22.706V29.7909ZM11.4743 22.7544H18.5183V29.7984H11.4743V22.7544ZM0.25 22.7544V25.0379C0.25 27.6041 2.34014 29.7984 5.01046 29.7984H7.294V22.7544H0.25Z" fill="black"/>
</svg>

<svg id="Layer_1" data-name="Layer 1" xmlns="http://www.w3.org/2000/svg" viewBox="0 0 30 30"><defs><style>.cls-1{fill:#fff;}</style></defs><path class="cls-1" d="M25.09.2H11.47V18.47H29.74V5A4.74,4.74,0,0,0,25.09.2ZM7.29.2H5A4.77,4.77,0,0,0,.25,5V7.25h7Zm-7,11.32h7v7.05h-7ZM22.71,29.79H25A4.77,4.77,0,0,0,29.75,25V22.75h-7Zm-11.24-7h7V29.8h-7Zm-11.22,0V25A4.78,4.78,0,0,0,5,29.8H7.29v-7Z"/></svg>
